X:1191
T:Polska efter Plunk
T:(SvL Dalarna 1191)
R:Polska
S:Efter Gudmund Tåberg
O:Gärdebyn, Rättvik, Dalarna
B:Svenska Låtar Dalarna
H:Denna polska sjöngs av Tåbergs morfars far, f. soldaten Plunk. (SvL)
Q:1/4=126
M:3/4
L:1/8
K:Am
|:v[BE]2 GB Gz|cd e(e/f/) [ee-]2|Le^f ga ge|^f^d (de) e2:|
|:c(d e)^f ge|^fd ed dc|({/d}c{dc})B  AB cA|B^G GA [AA,]2:|

